src/24/actions/mail-reply-list.svg

<svg xmlns="http://www.w3.org/2000/svg" viewBox="0 0 24 24">
  <defs id="defs3051">
    <style type="text/css" id="current-color-scheme">
      .ColorScheme-Text {
        color:#5d656b;
      }
      </style>
  </defs>
 <path style="fill:currentColor;fill-opacity:1;stroke:none" 
     d="M 2 4 L 2 13 L 3 13 L 3 5.2226562 L 3 5 L 3.0488281 5 L 3.2714844 5.2226562 L 9.0234375 10.976562 L 7 13 L 8.4140625 13 L 9.7304688 11.683594 L 11.183594 13.134766 L 12 13.949219 L 12.001953 13.949219 L 12.816406 13.134766 L 14.269531 11.683594 L 15.585938 13 L 17 13 L 14.976562 10.976562 L 20.728516 5.2226562 L 20.951172 5 L 21 5 L 21 5.2226562 L 21 13 L 22 13 L 22 5 L 22 4 L 21 4 L 20.537109 4 L 3.4628906 4 L 3 4 L 2.0488281 4 L 2 4 z M 4.4628906 5 L 19.537109 5 L 12 12.537109 L 4.4628906 5 z M 5 14 L 2 17 L 5 20 L 5 18 L 6 18 L 7 18 L 7 16 L 6 16 L 5 16 L 5 14 z M 16 15 L 16 16 L 22 16 L 22 15 L 16 15 z M 16 17 L 16 18 L 22 18 L 22 17 L 16 17 z M 9 19 L 9 20 L 15 20 L 15 19 L 9 19 z M 16 19 L 16 20 L 22 20 L 22 19 L 16 19 z "
     class="ColorScheme-Text"
     />
</svg>

<svg xmlns="http://www.w3.org/2000/svg" viewBox="0 0 24 24"><path d="M2 4v9h1V5h.049l.222.223 5.752 5.754L7 13h1.414l1.316-1.316 1.454 1.45.816.815h.002l.814-.814 1.454-1.451L15.586 13H17l-2.023-2.023 5.752-5.754L20.95 5H21v8h1V4H2zm2.463 1h15.074L12 12.537 4.463 5zM5 14l-3 3 3 3v-2h2v-2H5v-2zm11 1v1h6v-1h-6zm0 2v1h6v-1h-6zm-7 2v1h6v-1H9zm7 0v1h6v-1h-6z" fill="currentColor" color="#5d656b"/></svg>
